packages/core/src/svgs/tokens/branded/HAWK.svg

<svg width="24" height="24" viewBox="0 0 24 24" fill="none" xmlns="http://www.w3.org/2000/svg">
<path d="M5.31727 19.4353C3.75102 18.0309 2.66818 16.1678 2.22314 14.1117C3.21727 12.5824 5.63491 9.39414 10.2525 8.27649L10.0761 8.39414C9.01726 9.0412 7.22903 10.1588 6.03492 12.253C4.81139 14.3942 4.64668 17.0764 5.31727 19.4353Z" fill="url(#paint0_linear_364_13946)"/>
<path fill-rule="evenodd" clip-rule="evenodd" d="M12 22C14.6522 22 17.1957 20.9464 19.0711 19.071C20.9464 17.1957 22 14.6522 22 12C22 9.34785 20.9464 6.80429 19.0711 4.92892C17.1957 3.05357 14.6522 2 12 2C9.34784 2 6.80429 3.05357 4.92892 4.92892C3.05357 6.80429 2 9.34785 2 12C2 14.6522 3.05357 17.1957 4.92892 19.071C6.80429 20.9464 9.34784 22 12 22ZM12 22C13.6059 22 15.1176 21.6235 16.4705 20.947C13.6118 19.1706 10.6824 15.9471 13.1941 12.1706C14.2559 11.5077 15.4671 11.1217 16.7166 11.0478C17.9662 10.9738 19.2144 11.2141 20.347 11.7471C19.9353 10.1706 18.1824 8.25293 15.3588 7.4941C14.4 7.23528 13.7765 6.90587 13.5941 6.77058L13.5765 6.75882C12.8647 6.2647 12.5647 6.05882 12.347 6.02351C10.9647 5.8647 9.34701 6.29411 8.14705 6.75293C5.43969 7.80637 3.24237 9.86256 2.01176 12.4941C2.13859 15.0577 3.24627 17.4743 5.10555 19.2438C6.96482 21.0133 9.43335 22.0001 12 22Z" fill="url(#paint1_linear_364_13946)"/>
<path d="M13.5413 7.90584C12.3783 7.64743 11.1619 7.79481 10.0942 8.32349C10.303 8.29127 10.513 8.26772 10.7237 8.2529C10.8531 8.2529 11.9001 8.6529 12.4825 8.60584C12.9178 8.56466 13.2002 8.18231 13.306 7.96466C13.3118 7.9535 13.32 7.94392 13.3303 7.93675C13.3406 7.92955 13.3524 7.92501 13.3649 7.92349L13.5413 7.90584Z" fill="#0D3137"/>
<path d="M11.2587 21.9707C9.36457 19.3648 9.19984 14.6354 13.1881 12.1707C10.6822 15.9471 13.6175 19.1707 16.4645 20.9471C14.8537 21.7527 13.0545 22.1065 11.2587 21.9707Z" fill="url(#paint2_linear_364_13946)"/>
<path d="M15.459 7.51764C14.9589 7.61764 14.106 7.94118 13.9061 8.73529C13.5589 10.0706 13.3178 11.5059 13.2061 12.1588C14.2674 11.4999 15.4769 11.1171 16.7242 11.0452C17.9715 10.9732 19.217 11.2145 20.3471 11.7471C19.9472 10.1883 18.2237 8.30001 15.459 7.51764Z" fill="url(#paint3_linear_364_13946)"/>
<defs>
<linearGradient id="paint0_linear_364_13946" x1="21.2524" y1="2.02112" x2="12.9995" y2="22.7608" gradientUnits="userSpaceOnUse">
<stop stop-color="#2EE4A9"/>
<stop offset="1" stop-color="#0BBDC7"/>
</linearGradient>
<linearGradient id="paint1_linear_364_13946" x1="4.28823" y1="6.11764" x2="22.3294" y2="14.0941" gradientUnits="userSpaceOnUse">
<stop stop-color="#26E09F"/>
<stop offset="1" stop-color="#02A566"/>
</linearGradient>
<linearGradient id="paint2_linear_364_13946" x1="9.59736" y1="3.0295" x2="10.6541" y2="22.0771" gradientUnits="userSpaceOnUse">
<stop stop-color="#11AEB9"/>
<stop offset="0.52" stop-color="#91DFE9"/>
<stop offset="1" stop-color="white" stop-opacity="0"/>
</linearGradient>
<linearGradient id="paint3_linear_364_13946" x1="13.9423" y1="9.50584" x2="19.807" y2="10.5059" gradientUnits="userSpaceOnUse">
<stop offset="0.09" stop-color="#42C696"/>
<stop offset="1" stop-color="white" stop-opacity="0"/>
</linearGradient>
</defs>
</svg>

<svg xmlns="http://www.w3.org/2000/svg" width="24" height="24" fill="none" viewBox="0 0 24 24">
    <path fill="url(#HAWK__a)" d="M5.317 19.435a10 10 0 0 1-3.094-5.323c.994-1.53 3.412-4.718 8.03-5.836l-.177.118c-1.059.647-2.847 1.765-4.041 3.859-1.224 2.141-1.388 4.823-.718 7.182"/>
    <path fill="url(#HAWK__b)" fill-rule="evenodd" d="M12 22a10 10 0 1 0 0-20 10 10 0 0 0 0 20m0 0a9.95 9.95 0 0 0 4.47-1.053c-2.858-1.776-5.788-5-3.276-8.776a7.49 7.49 0 0 1 7.153-.424c-.412-1.576-2.165-3.494-4.988-4.253-.959-.259-1.582-.588-1.765-.723l-.018-.012c-.711-.494-1.011-.7-1.229-.735-1.382-.16-3 .27-4.2.729a11.3 11.3 0 0 0-6.135 5.741A10 10 0 0 0 12 22" clip-rule="evenodd"/>
    <path fill="#0D3137" d="M13.541 7.906a5.22 5.22 0 0 0-3.447.417q.314-.048.63-.07c.13 0 1.176.4 1.758.353.436-.041.718-.424.824-.641a.08.08 0 0 1 .059-.042z"/>
    <path fill="url(#HAWK__c)" d="M11.259 21.97c-1.894-2.605-2.06-7.335 1.93-9.8-2.507 3.777.428 7 3.276 8.777a9.96 9.96 0 0 1-5.206 1.024"/>
    <path fill="url(#HAWK__d)" d="M15.459 7.518c-.5.1-1.353.423-1.553 1.217-.347 1.336-.588 2.77-.7 3.424a7.49 7.49 0 0 1 7.141-.412c-.4-1.559-2.123-3.447-4.888-4.23"/>
    <defs>
        <linearGradient id="HAWK__a" x1="21.252" x2="12.999" y1="2.021" y2="22.761" gradientUnits="userSpaceOnUse">
            <stop stop-color="#2EE4A9"/>
            <stop offset="1" stop-color="#0BBDC7"/>
        </linearGradient>
        <linearGradient id="HAWK__b" x1="4.288" x2="22.329" y1="6.118" y2="14.094" gradientUnits="userSpaceOnUse">
            <stop stop-color="#26E09F"/>
            <stop offset="1" stop-color="#02A566"/>
        </linearGradient>
        <linearGradient id="HAWK__c" x1="9.597" x2="10.654" y1="3.03" y2="22.077" gradientUnits="userSpaceOnUse">
            <stop stop-color="#11AEB9"/>
            <stop offset=".52" stop-color="#91DFE9"/>
            <stop offset="1" stop-color="#fff" stop-opacity="0"/>
        </linearGradient>
        <linearGradient id="HAWK__d" x1="13.942" x2="19.807" y1="9.506" y2="10.506" gradientUnits="userSpaceOnUse">
            <stop offset=".09" stop-color="#42C696"/>
            <stop offset="1" stop-color="#fff" stop-opacity="0"/>
        </linearGradient>
    </defs>
</svg>
